flaticon/gastronomy/doughnut-2.svg

<svg xmlns="http://www.w3.org/2000/svg" width="32" height="32" viewBox="0 0 24 24">
    <path d="M10.882812 16.242188C10.179688 16.195312 9.480469 16.101562 8.804688 15.96875 8.804688 15.933594 8.8125 15.902344 8.8125 15.863281 8.8125 15.40625 8.605469 14.941406 8.257812 14.613281 7.929688 14.304688 7.515625 14.140625 7.09375 14.171875 6.675781 14.191406 6.066406 13.910156 5.957031 13.644531 5.589844 12.722656 4.757812 12.261719 3.886719 12.5 3.542969 12.597656 3.21875 12.828125 2.984375 13.128906 2.5625 12.71875 2.179688 12.269531 1.855469 11.789062 1.726562 11.605469 1.476562 11.554688 1.289062 11.683594 1.101562 11.808594 1.054688 12.0625 1.179688 12.246094 1.59375 12.859375 2.085938 13.421875 2.644531 13.929688 2.609375 14.167969 2.628906 14.40625 2.71875 14.628906 3.054688 15.472656 3.644531 16.214844 4.390625 16.742188L4.390625 17.964844C4.390625 18.761719 5.035156 19.40625 5.832031 19.40625 6.625 19.40625 7.269531 18.761719 7.269531 17.964844L7.269531 17.546875C7.824219 17.476562 8.289062 17.179688 8.558594 16.753906 9.296875 16.902344 10.058594 17.003906 10.828125 17.054688 10.835938 17.054688 10.847656 17.058594 10.855469 17.058594 11.070312 17.058594 11.246094 16.890625 11.261719 16.675781 11.277344 16.453125 11.105469 16.257812 10.882812 16.242188zM7.09375 16.746094C7.019531 16.75 6.945312 16.75 6.867188 16.75 6.765625 16.753906 6.65625 16.792969 6.578125 16.867188 6.5 16.945312 6.457031 17.046875 6.457031 17.15625L6.457031 17.964844C6.457031 18.3125 6.175781 18.59375 5.832031 18.59375 5.484375 18.59375 5.203125 18.3125 5.203125 17.964844L5.203125 16.527344C5.203125 16.386719 5.132812 16.257812 5.015625 16.183594 4.324219 15.742188 3.777344 15.082031 3.476562 14.328125 3.394531 14.125 3.457031 13.925781 3.519531 13.792969 3.644531 13.550781 3.871094 13.351562 4.105469 13.285156 4.1875 13.261719 4.269531 13.253906 4.34375 13.253906 4.769531 13.253906 5.0625 13.589844 5.203125 13.945312 5.480469 14.640625 6.523438 15.019531 7.140625 14.984375 7.339844 14.96875 7.539062 15.050781 7.699219 15.203125 7.886719 15.378906 8 15.628906 8 15.863281 8 16.410156 7.546875 16.71875 7.09375 16.746094zM14.570312 15.929688C14.351562 15.96875 14.203125 16.179688 14.242188 16.402344 14.28125 16.597656 14.449219 16.734375 14.644531 16.734375 14.667969 16.734375 14.691406 16.734375 14.71875 16.730469 16.875 16.332031 19.921875 15.347656 22.183594 12.886719 22.335938 12.71875 22.324219 12.460938 22.160156 12.308594 21.996094 12.160156 21.738281 12.167969 21.585938 12.335938 19.476562 14.628906 16.605469 15.554688 14.570312 15.929688zM12.785156 12.585938C12.859375 12.578125 12.933594 12.570312 13.007812 12.5625 13.082031 12.554688 13.152344 12.546875 13.226562 12.535156 13.269531 12.53125 13.3125 12.523438 13.355469 12.515625 15.285156 12.199219 16.679688 11.105469 16.679688 9.761719 16.679688 8.167969 14.710938 6.914062 12.203125 6.914062 9.695312 6.914062 7.730469 8.167969 7.730469 9.761719 7.730469 11.105469 9.121094 12.199219 11.054688 12.515625 11.097656 12.523438 11.136719 12.53125 11.179688 12.535156 11.253906 12.546875 11.328125 12.554688 11.402344 12.5625 11.472656 12.570312 11.546875 12.578125 11.621094 12.585938 11.675781 12.589844 11.734375 12.59375 11.789062 12.597656 11.925781 12.605469 12.0625 12.609375 12.203125 12.609375 12.34375 12.609375 12.480469 12.605469 12.617188 12.597656 12.675781 12.59375 12.730469 12.589844 12.785156 12.585938zM15.183594 10.925781C15.113281 10.976562 15.042969 11.027344 14.964844 11.078125 14.921875 11.109375 14.875 11.136719 14.824219 11.164062 14.777344 11.191406 14.726562 11.21875 14.671875 11.246094 14.574219 11.296875 14.46875 11.34375 14.363281 11.390625 14.3125 11.410156 14.265625 11.429688 14.214844 11.449219 14.148438 11.476562 14.078125 11.496094 14.007812 11.519531 13.949219 11.539062 13.890625 11.558594 13.828125 11.574219 13.761719 11.59375 13.699219 11.613281 13.632812 11.628906 13.511719 11.65625 13.386719 11.683594 13.261719 11.707031 13.210938 11.714844 13.164062 11.71875 13.117188 11.726562 13.011719 11.742188 12.90625 11.753906 12.800781 11.765625 12.753906 11.769531 12.707031 11.773438 12.660156 11.777344 12.507812 11.789062 12.359375 11.796875 12.203125 11.796875 12.046875 11.796875 11.898438 11.789062 11.746094 11.777344 11.699219 11.773438 11.652344 11.769531 11.605469 11.765625 11.5 11.753906 11.394531 11.742188 11.289062 11.726562 11.242188 11.71875 11.195312 11.714844 11.148438 11.707031 11.019531 11.683594 10.894531 11.65625 10.773438 11.628906 10.707031 11.613281 10.644531 11.59375 10.578125 11.574219 10.519531 11.558594 10.457031 11.539062 10.398438 11.519531 10.328125 11.5 10.261719 11.476562 10.191406 11.449219 10.140625 11.433594 10.09375 11.410156 10.046875 11.390625 9.9375 11.34375 9.832031 11.296875 9.734375 11.246094 9.683594 11.21875 9.632812 11.191406 9.582031 11.164062 9.535156 11.136719 9.484375 11.109375 9.441406 11.078125 9.363281 11.027344 9.292969 10.976562 9.222656 10.925781 9.210938 10.914062 9.195312 10.902344 9.179688 10.890625 9.089844 10.820312 9.011719 10.742188 8.941406 10.664062 8.9375 10.660156 8.933594 10.65625 8.925781 10.648438 9.910156 10.28125 11.03125 10.089844 12.203125 10.089844 13.375 10.089844 14.496094 10.28125 15.480469 10.648438 15.476562 10.652344 15.472656 10.660156 15.46875 10.664062 15.394531 10.742188 15.316406 10.820312 15.226562 10.890625 15.214844 10.902344 15.199219 10.914062 15.183594 10.925781zM12.203125 7.730469C14.1875 7.730469 15.863281 8.660156 15.863281 9.761719 15.863281 9.816406 15.855469 9.867188 15.851562 9.921875 14.753906 9.496094 13.503906 9.273438 12.203125 9.273438 10.902344 9.273438 9.652344 9.496094 8.558594 9.921875 8.550781 9.867188 8.542969 9.816406 8.542969 9.761719 8.542969 8.660156 10.21875 7.730469 12.203125 7.730469zM12.203125 7.730469"/>
    <path d="M 12 1.628906 C 5.382812 1.628906 0 5.460938 0 10.167969 L 0 13.832031 C 0 18.539062 5.382812 22.371094 12 22.371094 C 18.617188 22.371094 24 18.539062 24 13.828125 L 24 10.167969 C 24 5.460938 18.617188 1.628906 12 1.628906 Z M 23.1875 13.832031 C 23.1875 18.09375 18.167969 21.558594 12 21.558594 C 5.832031 21.558594 0.8125 18.09375 0.8125 13.828125 L 0.8125 10.167969 C 0.8125 5.90625 5.832031 2.441406 12 2.441406 C 18.167969 2.441406 23.1875 5.90625 23.1875 10.167969 Z M 23.1875 13.832031"/>
    <path d="M 6.863281 15.488281 C 6.011719 15.625 5.542969 15.058594 5.519531 15.027344 C 5.378906 14.855469 5.128906 14.824219 4.949219 14.957031 C 4.773438 15.097656 4.738281 15.351562 4.878906 15.53125 C 4.90625 15.566406 5.507812 16.324219 6.601562 16.324219 C 6.722656 16.324219 6.855469 16.3125 6.992188 16.292969 C 7.214844 16.257812 7.363281 16.046875 7.328125 15.828125 C 7.292969 15.605469 7.089844 15.449219 6.863281 15.488281 Z M 6.863281 15.488281"/>
</svg>

<svg xmlns="http://www.w3.org/2000/svg" width="32" height="32" viewBox="0 0 24 24">
    <path d="M10.883 16.242a16.514 16.514 0 0 1-2.078-.273c0-.035.008-.067.008-.106 0-.457-.208-.922-.555-1.25-.328-.308-.742-.472-1.164-.441-.418.02-1.028-.262-1.137-.527-.367-.922-1.2-1.383-2.07-1.145a1.802 1.802 0 0 0-.903.629 8.55 8.55 0 0 1-1.129-1.34.408.408 0 0 0-.675.457 9.346 9.346 0 0 0 1.465 1.684c-.036.238-.016.476.074.699a4.77 4.77 0 0 0 1.672 2.113v1.223a1.44 1.44 0 1 0 2.879 0v-.418a1.772 1.772 0 0 0 1.289-.793c.738.148 1.5.25 2.27.3.007 0 .019.005.026.005a.41.41 0 0 0 .028-.817zm-3.79.504c-.073.004-.148.004-.226.004a.452.452 0 0 0-.289.117.405.405 0 0 0-.121.29v.808a.628.628 0 1 1-1.254 0v-1.438c0-.14-.07-.27-.187-.343a3.967 3.967 0 0 1-1.54-1.856c-.081-.203-.019-.402.044-.535.125-.242.351-.441.585-.508a.87.87 0 0 1 .239-.031c.426 0 .718.336.86.691.276.696 1.32 1.075 1.937 1.04.199-.016.398.066.558.218.188.176.301.426.301.66 0 .547-.453.856-.906.883zm0 0M14.57 15.93a.408.408 0 0 0-.328.472.41.41 0 0 0 .403.332c.023 0 .046 0 .074-.004 2.156-.398 5.203-1.382 7.465-3.843a.412.412 0 0 0-.024-.578.407.407 0 0 0-.574.027c-2.11 2.293-4.98 3.219-7.016 3.594zm0 0M12.785 12.586l.223-.024a4.18 4.18 0 0 0 .347-.046c1.93-.317 3.325-1.41 3.325-2.754 0-1.594-1.97-2.848-4.477-2.848-2.508 0-4.473 1.254-4.473 2.848 0 1.343 1.391 2.437 3.325 2.754.043.007.082.015.125.02l.222.027.22.023.167.012a7.222 7.222 0 0 0 .996-.012zm2.399-1.66c-.07.05-.141.101-.22.152a2.693 2.693 0 0 1-.293.168c-.097.05-.202.098-.308.145l-.148.058c-.067.028-.137.047-.207.07-.059.02-.117.04-.18.055-.066.02-.129.04-.195.055-.121.027-.246.055-.371.078-.051.008-.098.012-.145.02-.105.015-.21.027-.316.039l-.14.011c-.153.012-.302.02-.458.02-.156 0-.305-.008-.457-.02l-.14-.011c-.106-.012-.211-.024-.317-.04-.047-.007-.094-.011-.14-.019a9.026 9.026 0 0 1-.376-.078c-.066-.016-.128-.035-.195-.055a3.147 3.147 0 0 1-.18-.054 2.156 2.156 0 0 1-.207-.07c-.05-.016-.097-.04-.144-.06a4.668 4.668 0 0 1-.313-.144l-.152-.082c-.047-.027-.098-.055-.14-.086-.079-.05-.149-.101-.22-.152a1.888 1.888 0 0 1-.281-.262l-.015-.016c.984-.367 2.105-.558 3.277-.558 1.172 0 2.293.191 3.277.558-.003.004-.007.012-.011.016a2.24 2.24 0 0 1-.242.227l-.043.035zm-2.98-3.196c1.983 0 3.66.93 3.66 2.032 0 .054-.009.105-.012.16-1.098-.426-2.348-.649-3.649-.649-1.3 0-2.55.223-3.644.649-.008-.055-.016-.106-.016-.16 0-1.102 1.676-2.032 3.66-2.032zm0 0"/>
    <path d="M12 1.629c-6.617 0-12 3.832-12 8.539v3.664c0 4.707 5.383 8.54 12 8.54s12-3.833 12-8.544v-3.66c0-4.707-5.383-8.54-12-8.54zm11.188 12.203c0 4.262-5.02 7.727-11.188 7.727-6.168 0-11.188-3.465-11.188-7.73v-3.661c0-4.262 5.02-7.727 11.188-7.727 6.168 0 11.188 3.465 11.188 7.727zm0 0"/>
    <path d="M6.863 15.488a1.447 1.447 0 0 1-1.343-.46.416.416 0 0 0-.57-.071.41.41 0 0 0-.071.574 2.27 2.27 0 0 0 2.113.762.406.406 0 0 0 .336-.465.402.402 0 0 0-.465-.34zm0 0"/>
</svg>
